!!!ONB: MCCC : IJH0405_04 : Extracted Monophonic Melody
!!!COM: Haydn, Joseph
!!!OPR: String Quartet in B-flat major
!!!OMV: 4
!!!SCT: Hob.III:1 ; Op.1 No.1
!!!ODT: 1757///
**kern
*thru
*k[b-e-]
*B-:
*clefF
*M3/4
4ff
=1
4bb-
4bb-
4bb-
=2
8bb-
8aa
4aa
4bb-
=3
4.ccc
8bb-
4aa
=4
4bb-
4ff
4ff
=5
8ff
8ee-
8ee-
8dd
8dd
8cc
=6
8ff
8ee-
8ee-
8dd
8dd
8cc
=7
8.dd
32cc
32dd
4ee-
4ee-
=8
4dd
4r
4ff
=9
4ccc
4ccc
4ccc
=10
8ccc
8bb-
4bb-
4aa
=11
8aa
8gg
8bb-
8gg
8ff
8ee
=12
4ff
4r
4f
=13
4ff
4ff
4ee-
=14
4dd-
4dd-
4cc
=15
4b-
4b-
4a
=16
4b-
4b-
4cc
=17
4dd-
4cc
8ff
8cc
=18
4dd-
4cc
4r
=19
2r
4b-
=20
4ee-
4ee-
4ee-
=21
4dd
4r
4b-
=22
4gg
4gg
4gg
=23
4ff
8bb-
8ff
8gg
8ee-
=24
4ff
8bb-
8ff
8ee-
8dd
=25
4cc
4b-
4a
=26
2b-
4r
=27
4ff
8ee-
8dd
8cc
8b-
=28
4gg
8ff
8ee-
8dd
8cc
=29
4ee-
8dd
8cc
8b-
8a
=30
4b-
4f
4r
=31
4cc
4cc
4cc#
=32
2dd
12ff
12dd
12b-
=33
4a
4r
4g
=34
2f
4r
=35
4ff
4ff
4ff#
=36
4gg
8bb-
8gg
8ee-
8dd
=37
4cc
8gg
8ee-
8cc
8b-
=38
2a
4r
=39
4ff
8ee-
8dd
8cc
8b-
=40
4gg
8ff
8ee-
8dd
8cc
=41
4dd
4b-
4a
=42
2b-
4r
==
*-
